X: 57
T: Sally Gardens
R:reel
M:4/4
K:G
(3DEF|"G"G2 DG B2 GB | dBeB dBAB | d2 Bd "C"egdB |"Am" AcBA GEDE|
"G"G2 DG B2 GB | dBeB dBAB | d2 Bd "C"egdB | "Am"AcBA "G"G2:|
|:Bc|"G"dggf g2 dg | g2 bg agfg |"Am" eaag a2 eg | a2 bg "(D)"agfg |
"G"dggf g2 dg | g2 bg agfg | d2 Bd "C"egdB |"Am" AcBA "G"G2:|


